; HEADER_BLOCK_START
; generated by OrcaSlicer 2.2.0 on 2025-04-02 at 22:24:37
; total layer number: 44
; filament_density: 1.24,1.24
; filament_diameter: 1.75,1.75
; max_z_height: 14.08
; HEADER_BLOCK_END

; THUMBNAIL_BLOCK_START

;
; THUMBNAIL_BLOCK_END

; THUMBNAIL_BLOCK_START

;
; THUMBNAIL_BLOCK_END

; external perimeters extrusion width = 0.40mm
; perimeters extrusion width = 0.40mm
; infill extrusion width = 0.40mm
; solid infill extrusion width = 0.40mm
; top infill extrusion width = 0.40mm
; support material extrusion width = 0.40mm
; first layer extrusion width = 0.40mm

; EXECUTABLE_BLOCK_START
M73 P0 R54
;TYPE:Custom
; Wanhao D12-300 Start G-code
; M117 Initial homing sequence.                         ; Home so that the probe is positioned to heat
G28
M117 Probe heating position
G0 X65 Y5 Z1                                                   ; Move the probe to the heating position.
M117 Getting the heaters up to temp!
M104 S200                                                          ; Set Extruder temperature, no wait
M140 S55                                                            ; Set Heat Bed temperature
M190 S55                                                            ; Wait for Heat Bed temperature
M117 Waiting for probe to warm!                        ; Wait another 90s for the probe to absorb heat.
G4 S90
M117 Post warming re-home
G28                                                                      ; Home all axes again after warming
M117 Z-Dance of my people
;G34
M117 ABL Probing
;G29
;M900 K0 L0 T0                                 ;Edit the K and L values if you have calibrated a k factor for your filament
M900 T0 S0
G1 Z2.0 F3000                                        ; Move Z Axis up little to prevent scratching of Heat Bed
G1 X4.1 Y10 Z0.3 F5000.0                      ; Move to start position
M117 Getting the extruder up to temp
M140 S55      ; Set Heat Bed temperature
M104 S220    ; Set Extruder temperature
M109 S220    ; Wait for Extruder temperature
M190 S55      ; Wait for Heat Bed temperature
G92 E0                                        ; Reset Extruder
M117 Purging
G1 X4.1 Y200.0 Z0.3 F1500.0 E15               ; Draw the first line
G1 X4.4 Y200.0 Z0.3 F5000.0                   ; Move to side a little
M73 P0 R53
G1 X4.4 Y20 Z0.3 F1500.0 E30                  ; Draw the second line
G92 E0                                        ; Reset Extruder
M117 Lets make
G1 X8 Y20 Z0.3 F5000.0                        ; Move over to prevent blob squish
G90
G21
M82 ; use absolute distances for extrusion
G92 E0
T1
G92 E0
; filament start gcode
M106 P3 S255


;LAYER_CHANGE
;Z:0.32
;HEIGHT:0.32
M73 P0 R53
G1 E-5 F2400
G92 E0
;_SET_FAN_SPEED_CHANGING_LAYER
SET_VELOCITY_LIMIT ACCEL=500 ACCEL_TO_DECEL=250
; printing object Object_2 id:97673181514560 copy 0
G1 X120.87 Y81.696 F30000
G1 Z.72
G1 Z.32
G1 E5 F4200
;TYPE:Inner wall
;WIDTH:0.4
G1 F3000
G1 X149.837 Y98.42 E6.47439
G1 X149.837 Y131.869 E7.94878
G1 X120.87 Y148.593 E9.42317
G1 X91.903 Y131.869 E10.89756
G1 X91.903 Y98.42 E12.37195
G1 X120.836 Y81.716 E13.84458
G1 X120.87 Y81.314 F30000
G1 F3000
G1 X150.169 Y98.229 E15.33583
G1 X150.169 Y132.06 E16.82709
G1 X120.87 Y148.975 E18.31834
G1 X91.572 Y132.06 E19.80959
G1 X91.572 Y98.229 E21.30085
G1 X120.836 Y81.334 E22.79034
G1 X120.87 Y80.931 F30000
G1 F3000
G1 X150.5 Y98.038 E24.29846
G1 X150.5 Y132.251 E25.80658
G1 X120.87 Y149.358 E27.3147
G1 X91.241 Y132.251 E28.82281
G1 X91.241 Y98.038 E30.33093
G1 X120.836 Y80.951 E31.83729
G1 X120.87 Y80.549 F30000
;TYPE:Outer wall
G1 F3000
G1 X150.831 Y97.847 E33.36227
G1 X150.831 Y132.442 E34.88725
G1 X120.87 Y149.74 E36.41224
G1 X90.91 Y132.442 E37.93722
M73 P1 R53
G1 X90.91 Y97.847 E39.4622
G1 X120.836 Y80.569 E40.98542
M73 P1 R53
G1 E36.78542 F2400
;WIPE_START
G1 F3000
G1 X121.702 Y81.068 E35.98542
;WIPE_END
G92 E0
G1 X128.179 Y85.107 Z.72 F30000
G1 X148.133 Y97.551 Z.72
G1 Z.32
G1 E5 F4200
;TYPE:Bottom surface
;WIDTH:0.400796
G1 F6300
G1 X149.589 Y99.007 E5.091
G1 X149.589 Y99.477 E5.11175
G1 X147.429 Y97.317 E5.24673
G1 X146.317 Y96.675 E5.30343
G1 X149.589 Y99.947 E5.50786
G1 X149.589 Y100.416 E5.52862
G1 X145.206 Y96.034 E5.80249
G1 X144.095 Y95.392 E5.85919
G1 X149.589 Y100.886 E6.2025
G1 X149.589 Y101.356 E6.22326
G1 X142.983 Y94.75 E6.63601
G1 X141.872 Y94.109 E6.69271
G1 X149.589 Y101.825 E7.17492
G1 X149.589 Y102.295 E7.19567
G1 X140.761 Y93.467 E7.74732
G1 X139.65 Y92.825 E7.80402
G1 X149.589 Y102.765 E8.4251
G1 X149.589 Y103.234 E8.44586
G1 X138.538 Y92.184 E9.13639
G1 X137.427 Y91.542 E9.19309
G1 X149.589 Y103.704 E9.95306
G1 X149.589 Y104.174 E9.97382
G1 X136.316 Y90.901 E10.80324
G1 X135.204 Y90.259 E10.85994
G1 X149.589 Y104.644 E11.7588
G1 X149.589 Y105.113 E11.77955
G1 X134.093 Y89.617 E12.74786
G1 X132.982 Y88.976 E12.80456
G1 X149.589 Y105.583 E13.84231
G1 X149.589 Y106.053 E13.86306
G1 X131.87 Y88.334 E14.97025
G1 X130.759 Y87.693 E15.02695
G1 X149.589 Y106.522 E16.20359
G1 X149.589 Y106.992 E16.22434
G1 X129.648 Y87.051 E17.47042
G1 X128.536 Y86.409 E17.52712
G1 X149.589 Y107.462 E18.84264
G1 X149.589 Y107.931 E18.8634
G1 X127.425 Y85.768 E20.24836
G1 X126.314 Y85.126 E20.30506
G1 X149.589 Y108.401 E21.75947
G1 X149.589 Y108.871 E21.78023
G1 X125.203 Y84.485 E23.30408
G1 X124.091 Y83.843 E23.36078
G1 X149.589 Y109.34 E24.95408
G1 X149.589 Y109.81 E24.97483
G1 X122.98 Y83.201 E26.63757
G1 X121.869 Y82.56 E26.69427
G1 X149.589 Y110.28 E28.42645
G1 X149.589 Y110.75 E28.44721
G1 X120.84 Y82.001 E30.24366
G1 X120.542 Y82.173 E30.25886
G1 X149.589 Y111.219 E32.07392
G1 X149.589 Y111.689 E32.09467
G1 X120.245 Y82.345 E33.92834
G1 X119.947 Y82.517 E33.94354
G1 X149.589 Y112.159 E35.79581
G1 X149.589 Y112.628 E35.81657
G1 X119.649 Y82.689 E37.68745
G1 X119.351 Y82.86 E37.70264
G1 X149.589 Y113.098 E39.59214
G1 X149.589 Y113.568 E39.61289
G1 X119.053 Y83.032 E41.52099
G1 X118.756 Y83.204 E41.53618
G1 X149.589 Y114.037 E43.46289
G1 X149.589 Y114.507 E43.48364
G1 X118.458 Y83.376 E45.42896
G1 X118.16 Y83.548 E45.44415
G1 X149.589 Y114.977 E47.40807
G1 X149.589 Y115.446 E47.42882
G1 X117.862 Y83.72 E49.41135
G1 X117.565 Y83.892 E49.42654
G1 X149.589 Y115.916 E51.42768
G1 X149.589 Y116.386 E51.44843
G1 X117.267 Y84.064 E53.46818
G1 X116.969 Y84.236 E53.48337
G1 X149.589 Y116.856 E55.52172
G1 X149.589 Y117.325 E55.54247
G1 X116.671 Y84.408 E57.59943
G1 X116.374 Y84.58 E57.61462
G1 X149.589 Y117.795 E59.69019
G1 X149.589 Y118.265 E59.71094
G1 X116.076 Y84.752 E61.80512
G1 X115.778 Y84.923 E61.82031
G1 X149.589 Y118.734 E63.93309
G1 X149.589 Y119.204 E63.95384
G1 X115.48 Y85.095 E66.08523
G1 X115.182 Y85.267 E66.10042
G1 X149.589 Y119.674 E68.25042
G1 X149.589 Y120.143 E68.27117
G1 X114.885 Y85.439 E70.43977
G1 X114.587 Y85.611 E70.45496
G1 X149.589 Y120.613 E72.64217
G1 X149.589 Y121.083 E72.66293
G1 X114.289 Y85.783 E74.86874
G1 X113.991 Y85.955 E74.88394
G1 X149.589 Y121.552 E77.10836
G1 X149.589 Y122.022 E77.12911
G1 X113.694 Y86.127 E79.37215
G1 X113.396 Y86.299 E79.38734
G1 X149.589 Y122.492 E81.64898
G1 X149.589 Y122.962 E81.66973
M73 P1 R52
G1 X113.098 Y86.471 E83.94998
G1 X112.8 Y86.643 E83.96517
M73 P1 R52
G1 X149.589 Y123.431 E86.26402
G1 X149.589 Y123.901 E86.28478
G1 X112.502 Y86.815 E88.60224
G1 X112.205 Y86.986 E88.61743
G1 X149.589 Y124.371 E90.9535
G1 X149.589 Y124.84 E90.97425
G1 X111.907 Y87.158 E93.32892
G1 X111.609 Y87.33 E93.34412
M73 P2 R52
G1 X149.589 Y125.31 E95.7174
G1 X149.589 Y125.78 E95.73815
M73 P2 R52
G1 X111.311 Y87.502 E98.13004
G1 X111.014 Y87.674 E98.14524
G1 X149.589 Y126.249 E100.55573
G1 X149.589 Y126.719 E100.57649
G1 X110.716 Y87.846 E103.00559
G1 X110.418 Y88.018 E103.02078
G1 X149.589 Y127.189 E105.46849
G1 X149.589 Y127.658 E105.48925
G1 X110.12 Y88.19 E107.95557
G1 X109.822 Y88.362 E107.97076
G1 X149.589 Y128.128 E110.45569
G1 X149.589 Y128.598 E110.47644
G1 X109.525 Y88.534 E112.97997
G1 X109.227 Y88.706 E112.99517
G1 X149.589 Y129.068 E115.51731
G1 X149.589 Y129.537 E115.53806
G1 X108.929 Y88.878 E118.07881
G1 X108.631 Y89.05 E118.094
G1 X149.589 Y130.007 E120.65336
G1 X149.589 Y130.477 E120.67411
G1 X108.334 Y89.221 E123.25207
G1 X108.036 Y89.393 E123.26727
G1 X149.589 Y130.946 E125.86384
G1 X149.589 Y131.416 E125.88459
G1 X107.738 Y89.565 E128.49977
G1 X107.44 Y89.737 E128.51496
G1 X149.487 Y131.784 E131.14238
G1 X149.189 Y131.956 E131.15757
G1 X107.143 Y89.909 E133.78499
G1 X106.845 Y90.081 E133.80019
G1 X148.891 Y132.128 E136.42761
G1 X148.594 Y132.3 E136.4428
G1 X106.547 Y90.253 E139.07022
G1 X106.249 Y90.425 E139.08542
G1 X148.296 Y132.472 E141.71284
G1 X147.998 Y132.643 E141.72803
G1 X105.951 Y90.597 E144.35545
G1 X105.654 Y90.769 E144.37064
G1 X147.7 Y132.815 E146.99806
G1 X147.403 Y132.987 E147.01326
G1 X105.356 Y90.941 E149.64068
G1 X105.058 Y91.113 E149.65587
G1 X147.105 Y133.159 E152.28329
G1 X146.807 Y133.331 E152.29848
G1 X104.76 Y91.284 E154.92591
G1 X104.463 Y91.456 E154.9411
G1 X146.509 Y133.503 E157.56852
G1 X146.211 Y133.675 E157.58371
G1 X104.165 Y91.628 E160.21113
G1 X103.867 Y91.8 E160.22633
G1 X145.914 Y133.847 E162.85375
G1 X145.616 Y134.019 E162.86894
G1 X103.569 Y91.972 E165.49636
G1 X103.271 Y92.144 E165.51155
G1 X145.318 Y134.191 E168.13898
G1 X145.02 Y134.363 E168.15417
G1 X102.974 Y92.316 E170.78159
G1 X102.676 Y92.488 E170.79678
G1 X144.723 Y134.535 E173.4242
G1 X144.425 Y134.707 E173.4394
G1 X102.378 Y92.66 E176.06682
G1 X102.08 Y92.832 E176.08201
G1 X144.127 Y134.878 E178.70943
G1 X143.829 Y135.05 E178.72462
G1 X101.783 Y93.004 E181.35204
G1 X101.485 Y93.176 E181.36724
G1 X143.532 Y135.222 E183.99466
G1 X143.234 Y135.394 E184.00985
G1 X101.187 Y93.348 E186.63727
G1 X100.889 Y93.519 E186.65247
G1 X142.936 Y135.566 E189.27989
G1 X142.638 Y135.738 E189.29508
G1 X100.592 Y93.691 E191.9225
G1 X100.294 Y93.863 E191.93769
G1 X142.34 Y135.91 E194.56511
G1 X142.043 Y136.082 E194.58031
G1 X99.996 Y94.035 E197.20773
G1 X99.698 Y94.207 E197.22292
G1 X141.745 Y136.254 E199.85034
G1 X141.447 Y136.426 E199.86553
G1 X99.4 Y94.379 E202.49296
G1 X99.103 Y94.551 E202.50815
G1 X141.149 Y136.598 E205.13557
G1 X140.852 Y136.77 E205.15076
M73 P3 R52
G1 X98.805 Y94.723 E207.77818
G1 X98.507 Y94.895 E207.79338
M73 P3 R52
G1 X140.554 Y136.941 E210.4208
G1 X140.256 Y137.113 E210.43599
G1 X98.209 Y95.067 E213.06341
G1 X97.912 Y95.239 E213.0786
G1 X139.958 Y137.285 E215.70602
G1 X139.66 Y137.457 E215.72122
G1 X97.614 Y95.411 E218.34864
G1 X97.316 Y95.582 E218.36383
G1 X139.363 Y137.629 E220.99125
G1 X139.065 Y137.801 E221.00645
G1 X97.018 Y95.754 E223.63387
G1 X96.72 Y95.926 E223.64906
G1 X138.767 Y137.973 E226.27648
G1 X138.469 Y138.145 E226.29167
G1 X96.423 Y96.098 E228.91909
G1 X96.125 Y96.27 E228.93429
G1 X138.172 Y138.317 E231.56171
G1 X137.874 Y138.489 E231.5769
G1 X95.827 Y96.442 E234.20432
G1 X95.529 Y96.614 E234.21951
G1 X137.576 Y138.661 E236.84694
G1 X137.278 Y138.833 E236.86213
G1 X95.232 Y96.786 E239.48955
G1 X94.934 Y96.958 E239.50474
G1 X136.981 Y139.005 E242.13216
G1 X136.683 Y139.176 E242.14736
G1 X94.636 Y97.13 E244.77478
G1 X94.338 Y97.302 E244.78997
G1 X136.385 Y139.348 E247.41739
G1 X136.087 Y139.52 E247.43258
G1 X94.041 Y97.474 E250.06
G1 X93.743 Y97.646 E250.0752
G1 X135.789 Y139.692 E252.70262
G1 X135.492 Y139.864 E252.71781
G1 X93.445 Y97.817 E255.34523
G1 X93.147 Y97.989 E255.36043
G1 X135.194 Y140.036 E257.98785
G1 X134.896 Y140.208 E258.00304
G1 X92.849 Y98.161 E260.63046
G1 X92.552 Y98.333 E260.64565
G1 X134.598 Y140.38 E263.27307
G1 X134.301 Y140.552 E263.28827
G1 X92.254 Y98.505 E265.91569
G1 X92.152 Y98.564 E265.92089
G1 X92.152 Y98.873 E265.93454
G1 X134.003 Y140.724 E268.54972
G1 X133.705 Y140.896 E268.56491
G1 X92.152 Y99.343 E271.16149
G1 X92.152 Y99.812 E271.18224
G1 X133.407 Y141.068 E273.76021
G1 X133.109 Y141.239 E273.7754
G1 X92.152 Y100.282 E276.33476
G1 X92.152 Y100.752 E276.35551
G1 X132.812 Y141.411 E278.89626
G1 X132.514 Y141.583 E278.91145
G1 X92.152 Y101.221 E281.4336
G1 X92.152 Y101.691 E281.45435
G1 X132.216 Y141.755 E283.95789
G1 X131.918 Y141.927 E283.97308
G1 X92.152 Y102.161 E286.45801
G1 X92.152 Y102.63 E286.47876
G1 X131.621 Y142.099 E288.94509
G1 X131.323 Y142.271 E288.96028
M73 P3 R51
G1 X92.152 Y103.1 E291.40799
G1 X92.152 Y103.57 E291.42875
M73 P3 R51
G1 X131.025 Y142.443 E293.85786
G1 X130.727 Y142.615 E293.87305
G1 X92.152 Y104.04 E296.28355
G1 X92.152 Y104.509 E296.3043
G1 X130.429 Y142.787 E298.69619
G1 X130.132 Y142.959 E298.71139
G1 X92.152 Y104.979 E301.08467
G1 X92.152 Y105.449 E301.10543
G1 X129.834 Y143.131 E303.4601
G1 X129.536 Y143.302 E303.4753
G1 X92.152 Y105.918 E305.81137
G1 X92.152 Y106.388 E305.83212
G1 X129.238 Y143.474 E308.14959
G1 X128.941 Y143.646 E308.16478
G1 X92.152 Y106.858 E310.46363
G1 X92.152 Y107.327 E310.48439
G1 X128.643 Y143.818 E312.76464
G1 X128.345 Y143.99 E312.77983
G1 X92.152 Y107.797 E315.04147
G1 X92.152 Y108.267 E315.06223
G1 X128.047 Y144.162 E317.30526
G1 X127.75 Y144.334 E317.32045
M73 P4 R51
G1 X92.152 Y108.736 E319.54488
G1 X92.152 Y109.206 E319.56563
M73 P4 R51
G1 X127.452 Y144.506 E321.77145
G1 X127.154 Y144.678 E321.78665
G1 X92.152 Y109.676 E323.97386
G1 X92.152 Y110.146 E323.99461
G1 X126.856 Y144.85 E326.16322
G1 X126.558 Y145.022 E326.17841
G1 X92.152 Y110.615 E328.32841
G1 X92.152 Y111.085 E328.34916
G1 X126.261 Y145.194 E330.48055
G1 X125.963 Y145.366 E330.49574
G1 X92.152 Y111.555 E332.60853
G1 X92.152 Y112.024 E332.62928
G1 X125.665 Y145.537 E334.72346
G1 X125.367 Y145.709 E334.73865
G1 X92.152 Y112.494 E336.81422
G1 X92.152 Y112.964 E336.83497
G1 X125.07 Y145.881 E338.89193
G1 X124.772 Y146.053 E338.90712
G1 X92.152 Y113.433 E340.94548
G1 X92.152 Y113.903 E340.96623
G1 X124.474 Y146.225 E342.98598
G1 X124.176 Y146.397 E343.00117
G1 X92.152 Y114.373 E345.00231
G1 X92.152 Y114.842 E345.02306
G1 X123.878 Y146.569 E347.0056
G1 X123.581 Y146.741 E347.02079
G1 X92.152 Y115.312 E348.98471
G1 X92.152 Y115.782 E349.00547
G1 X123.283 Y146.913 E350.95078
G1 X122.985 Y147.085 E350.96598
G1 X92.152 Y116.252 E352.89269
G1 X92.152 Y116.721 E352.91344
G1 X122.687 Y147.257 E354.82154
G1 X122.39 Y147.429 E354.83673
G1 X92.152 Y117.191 E356.72623
G1 X92.152 Y117.661 E356.74698
G1 X122.092 Y147.6 E358.61787
G1 X121.794 Y147.772 E358.63306
G1 X92.152 Y118.13 E360.48534
G1 X92.152 Y118.6 E360.5061
G1 X121.496 Y147.944 E362.33977
G1 X121.199 Y148.116 E362.35496
G1 X92.152 Y119.07 E364.17003
G1 X92.152 Y119.539 E364.19078
G1 X120.901 Y148.288 E365.98724
G1 X120.87 Y148.306 E365.98879
G1 X119.872 Y147.729 E366.03971
G1 X92.152 Y120.009 E367.77191
G1 X92.152 Y120.479 E367.79266
G1 X118.761 Y147.088 E369.45541
G1 X117.65 Y146.446 E369.51211
G1 X92.152 Y120.948 E371.10542
G1 X92.152 Y121.418 E371.12618
G1 X116.538 Y145.805 E372.65004
G1 X115.427 Y145.163 E372.70674
G1 X92.152 Y121.888 E374.16116
G1 X92.152 Y122.358 E374.18192
G1 X114.316 Y144.521 E375.5669
G1 X113.205 Y143.88 E375.6236
G1 X92.152 Y122.827 E376.93913
G1 X92.152 Y123.297 E376.95988
G1 X112.093 Y143.238 E378.20598
G1 X110.982 Y142.597 E378.26268
G1 X92.152 Y123.767 E379.43932
G1 X92.152 Y124.236 E379.46008
G1 X109.871 Y141.955 E380.56728
G1 X108.759 Y141.313 E380.62398
G1 X92.152 Y124.706 E381.66174
G1 X92.152 Y125.176 E381.6825
G1 X107.648 Y140.672 E382.65082
G1 X106.537 Y140.03 E382.70752
G1 X92.152 Y125.645 E383.60639
G1 X92.152 Y126.115 E383.62714
G1 X105.425 Y139.388 E384.45658
G1 X104.314 Y138.747 E384.51328
G1 X92.152 Y126.585 E385.27326
G1 X92.152 Y127.054 E385.29402
G1 X103.203 Y138.105 E385.98456
G1 X102.091 Y137.464 E386.04126
G1 X92.152 Y127.524 E386.66236
G1 X92.152 Y127.994 E386.68312
G1 X100.98 Y136.822 E387.23477
G1 X99.869 Y136.18 E387.29147
G1 X92.152 Y128.464 E387.77369
G1 X92.152 Y128.933 E387.79444
G1 X98.758 Y135.539 E388.20721
G1 X97.646 Y134.897 E388.26391
G1 X92.152 Y129.403 E388.60724
G1 X92.152 Y129.873 E388.62799
G1 X96.535 Y134.256 E388.90188
G1 X95.424 Y133.614 E388.95858
G1 X92.152 Y130.342 E389.16302
G1 X92.152 Y130.812 E389.18377
G1 X94.312 Y132.972 E389.31877
G1 X93.201 Y132.331 E389.37547
G1 X92.003 Y131.133 E389.45034
; stop printing object Object_2 id:97673181514560 copy 0
M106 S255

